X:1
T: Seamus O'Brien
I:
C: W-20
C: Irish
M: 3/4
Z:
R: waltz
K: G
g>f| "G"e2 d2 BA| G4 DD| "C"E2 G2 E2| "G"D3E DC|\
        B,2 D2 GB| "Em"e2 d2 B2| "Am"A3G AB| "D"A4 gf|
     "G"e2 d2 BA| G4 DD| "C"E2 G2 c2| "C#dim"e3g fe| \
     "G"d2 B2 G2| "D"AE3 F2| "G"G3F GA| G4|]
\
B2| "Em"e3d ef| g2 f2 e2| "B"f2 B3c| B4 B2|\
    "Em"e3d ef| g2 f2 g2| "C"a6| "D"g4 f2|
    "G"e2 d2 BA| G4 DD| "C"E2 G2 c2| "C#dim"e3g fe| \
    "G"d2 B3G| "D"A2 E2 F2| "G"G4- GA| G4|]
%
